outputs/icons/communication/conversation_round.svg

<svg xmlns="http://www.w3.org/2000/svg" width="1200" height="1200" fill="none"><g clip-path="url(#a)"><path fill="#000" d="M1000 300h-50v400c0 27.5-22.5 50-50 50H300v50c0 55 45 100 100 100h500l200 200V400c0-55-45-100-100-100M850 550V200c0-55-45-100-100-100H200c-55 0-100 45-100 100v650l200-200h450c55 0 100-45 100-100"/></g><defs><clipPath id="a"><path fill="#fff" d="M0 0h1200v1200H0z"/></clipPath></defs></svg>

<svg width="1200" height="1200" viewBox="0 0 1200 1200" fill="none" xmlns="http://www.w3.org/2000/svg"><g clip-path="url(#clip0_223_1882)"><path d="M1000 300H950V700C950 727.5 927.5 750 900 750H300V800C300 855 345 900 400 900H900L1100 1100V400C1100 345 1055 300 1000 300ZM850 550V200C850 145 805 100 750 100H200C145 100 100 145 100 200V850L300 650H750C805 650 850 605 850 550Z" fill="#1D1E23"/></g><defs><clipPath id="clip0_223_1882"><path width="24" fill="white" d="M0 0H1200V1200H0V0z"/></clipPath></defs></svg>
